src/assets/filled/MiniMusicSqaure.svg

<?xml version="1.0" encoding="UTF-8"?>
<svg width="24" height="24" viewBox="0 0 24 24" xmlns="http://www.w3.org/2000/svg">
 <path d="m20.71 17.52c-0.37 1.22-1.1 2.16-2.14 2.74-0.04-0.16-0.06-0.33-0.06-0.5 0-1.22 0.99-2.22 2.2-2.24z" opacity=".4"/>
 <path d="m21 7.52v1.964c0 0.52253-0.414 0.94543-0.92 1.076l-2.95 0.82c-1.56 0.4-2.6 1.75-2.6 3.36v1.5449c0 0.4746-0.3427 0.8707-0.7688 1.0795-1.0155 0.4975-1.7914 1.507-2.0842 2.6463-0.1375 0.5349-0.5747 0.9893-1.127 0.9893h-3.03c-3.45 0-5.52-2.06-5.52-5.52v-7.96c0-3.46 2.07-5.52 5.52-5.52h7.96c3.45 0 5.52 2.06 5.52 5.52z"/>
 <path d="m22.31 12.25c-0.26-0.19-0.68-0.39-1.31-0.33-0.16 0.01-0.33 0.04-0.52 0.09l-2.98 0.82c-0.89 0.23-1.47 0.98-1.47 1.91v3.91c-0.23-0.08-0.48-0.13-0.74-0.13-1.24 0-2.25 1-2.25 2.24 0 0.08 0 0.16 0.01 0.24 0.12 1.12 1.08 2 2.24 2 1.22 0 2.21-0.99 2.23-2.2 0-0.02 0.01-0.03 0.01-0.04v-3.69l3.45-0.95 0.52-0.14v1.68c-0.23-0.08-0.48-0.14-0.75-0.14h-0.04c-1.21 0.02-2.2 1.02-2.2 2.24 0 0.17 0.02 0.34 0.06 0.5 0.23 1 1.12 1.75 2.18 1.75 1.23 0 2.22-0.99 2.24-2.21 0-0.01 0.01-0.02 0.01-0.04v-5.83c0-0.76-0.23-1.32-0.69-1.68zm-7.02 9.25c-0.33 0-0.61-0.21-0.7-0.5-0.04-0.07-0.05-0.16-0.05-0.24 0-0.41 0.34-0.74 0.75-0.74 0.4 0 0.74 0.33 0.74 0.74 0 0.08-0.01 0.15-0.04 0.22-0.09 0.3-0.37 0.52-0.7 0.52zm5.46-0.99c-0.4 0-0.74-0.34-0.74-0.75 0-0.4 0.34-0.74 0.74-0.74 0.41 0 0.75 0.34 0.75 0.74 0 0.41-0.34 0.75-0.75 0.75z"/>
</svg>

<svg width="24" height="24" viewBox="0 0 24 24"  xmlns="http://www.w3.org/2000/svg">
<path opacity="0.4" d="M20.71 17.52C20.34 18.74 19.61 19.68 18.57 20.26C18.53 20.1 18.51 19.93 18.51 19.76C18.51 18.54 19.5 17.54 20.71 17.52Z" />
<path d="M21 7.52V9.48397C21 10.0065 20.586 10.4294 20.08 10.56L17.13 11.38C15.57 11.78 14.53 13.13 14.53 14.74V16.2849C14.53 16.7595 14.1873 17.1556 13.7612 17.3644C12.7457 17.8619 11.9698 18.8714 11.677 20.0107C11.5395 20.5456 11.1023 21 10.55 21H7.52C4.07 21 2 18.94 2 15.48V7.52C2 4.06 4.07 2 7.52 2H15.48C18.93 2 21 4.06 21 7.52Z" />
<path d="M22.31 12.25C22.05 12.06 21.63 11.86 21 11.92C20.84 11.93 20.67 11.96 20.48 12.01L17.5 12.83C16.61 13.06 16.03 13.81 16.03 14.74V18.65C15.8 18.57 15.55 18.52 15.29 18.52C14.05 18.52 13.04 19.52 13.04 20.76C13.04 20.84 13.04 20.92 13.05 21C13.17 22.12 14.13 23 15.29 23C16.51 23 17.5 22.01 17.52 20.8C17.52 20.78 17.53 20.77 17.53 20.76V17.07L20.98 16.12L21.5 15.98V17.66C21.27 17.58 21.02 17.52 20.75 17.52H20.71C19.5 17.54 18.51 18.54 18.51 19.76C18.51 19.93 18.53 20.1 18.57 20.26C18.8 21.26 19.69 22.01 20.75 22.01C21.98 22.01 22.97 21.02 22.99 19.8C22.99 19.79 23 19.78 23 19.76V13.93C23 13.17 22.77 12.61 22.31 12.25ZM15.29 21.5C14.96 21.5 14.68 21.29 14.59 21C14.55 20.93 14.54 20.84 14.54 20.76C14.54 20.35 14.88 20.02 15.29 20.02C15.69 20.02 16.03 20.35 16.03 20.76C16.03 20.84 16.02 20.91 15.99 20.98C15.9 21.28 15.62 21.5 15.29 21.5ZM20.75 20.51C20.35 20.51 20.01 20.17 20.01 19.76C20.01 19.36 20.35 19.02 20.75 19.02C21.16 19.02 21.5 19.36 21.5 19.76C21.5 20.17 21.16 20.51 20.75 20.51Z" />
</svg>
